resources/haticons/SVG/add_chart.svg

<!-- Generated by IcoMoon.io -->
<svg version="1.1" xmlns="http://www.w3.org/2000/svg" width="24" height="24" viewBox="0 0 24 24">
<title>add_chart</title>
<path d="M18 18.984v-4.969h2.016v4.969q0 0.797-0.609 1.406t-1.406 0.609h-14.016q-0.797 0-1.383-0.609t-0.586-1.406v-13.969q0-0.797 0.586-1.406t1.383-0.609h12v2.016h-12v13.969h14.016zM20.016 6.984h3v2.016h-3v3h-2.016v-3h-3v-2.016h3v-3h2.016v3zM9.984 6.984h2.016v9.984h-2.016v-9.984zM14.016 12.984h1.969v3.984h-1.969v-3.984zM6 9.984h2.016v6.984h-2.016v-6.984z"></path>
</svg>

<svg xmlns="http://www.w3.org/2000/svg" width="24" height="24"><path d="M18 18.984v-4.969h2.016v4.969q0 .797-.609 1.406t-1.406.609H3.985q-.797 0-1.383-.609t-.586-1.406V5.015q0-.797.586-1.406T3.985 3h12v2.016h-12v13.969h14.016zm2.016-12h3V9h-3v3H18V9h-3V6.984h3v-3h2.016v3zm-10.032 0H12v9.984H9.984V6.984zm4.032 6h1.969v3.984h-1.969v-3.984zM6 9.984h2.016v6.984H6V9.984z"/></svg>
